alura/assets/api/cursos/microsservicos-pratica-mensageria-rabbitmq.svg

<svg width="46" height="50" viewBox="0 0 46 50" fill="none" xmlns="http://www.w3.org/2000/svg">
<path d="M3.56003 37.3302L7.55003 40.6202L44 27.7502L44.13 21.3402C44.4 19.7202 43.18 12.9102 41.91 11.8602L29.04 4.21021C27.77 3.16021 26.04 2.87021 24.5 3.45021L6.90003 10.0202C5.36003 10.6002 4.24003 11.9502 3.97003 13.5702L2.33003 32.6402C2.06003 34.2602 2.29003 36.2802 3.56003 37.3302Z" fill="#AFE55D"/>
<path d="M38.8099 8.83021L25.0799 1.99021C23.7399 0.890207 21.2299 1.87021 19.5999 2.48021L5.92994 10.4902C4.29994 11.1002 2.50994 12.5702 2.22994 14.2802L1.18994 22.3502L38.8099 8.83021Z" fill="#C3FF68"/>
<path d="M23.0001 49.6201C21.9901 49.6201 20.9801 49.3601 20.0801 48.8401L3.81014 39.4501C2.01014 38.4101 0.890137 36.4701 0.890137 34.3901V15.6101C0.890137 13.5301 2.01014 11.5901 3.81014 10.5501L20.0801 1.16013C21.8801 0.120127 24.1201 0.120127 25.9201 1.16013L42.1901 10.5501C43.9901 11.5901 45.1101 13.5301 45.1101 15.6101V29.4001C45.1101 30.0801 44.5601 30.6301 43.8801 30.6301C43.2001 30.6301 42.6501 30.0801 42.6501 29.4001V15.6101C42.6501 14.4101 42.0001 13.2901 40.9601 12.6901L24.6901 3.30013C23.6501 2.70013 22.3601 2.70013 21.3201 3.30013L5.05014 12.6901C4.01014 13.2901 3.36014 14.4101 3.36014 15.6101V34.4001C3.36014 35.6001 4.01014 36.7201 5.05014 37.3201L21.3201 46.7101C22.3601 47.3101 23.6501 47.3101 24.6901 46.7101L29.1801 44.1201C29.7701 43.7801 30.5301 43.9801 30.8701 44.5701C31.2101 45.1601 31.0101 45.9201 30.4201 46.2601L25.9301 48.8501C25.0201 49.3701 24.0101 49.6201 23.0001 49.6201Z" fill="#494949"/>
<path d="M35.0699 30.5301V27.3301H19.1099H11.1299V30.6101" stroke="#494949" stroke-miterlimit="10" stroke-linecap="round"/>
<path d="M37.6697 30.6101H32.4697V35.8101H37.6697V30.6101Z" stroke="#494949" stroke-miterlimit="10" stroke-linecap="round" stroke-linejoin="round"/>
<path d="M29.7 32.4099H24.5V37.6099H29.7V32.4099Z" stroke="#494949" stroke-miterlimit="10" stroke-linecap="round" stroke-linejoin="round"/>
<path d="M21.7098 34.55H16.5098V39.75H21.7098V34.55Z" stroke="#494949" stroke-miterlimit="10" stroke-linecap="round" stroke-linejoin="round"/>
<path d="M13.7298 30.6101H8.52979V35.8101H13.7298V30.6101Z" stroke="#494949" stroke-miterlimit="10" stroke-linecap="round" stroke-linejoin="round"/>
<path d="M19.1099 34.5501V27.3301" stroke="#494949" stroke-miterlimit="10"/>
<path d="M27.0996 27.3301V32.4101" stroke="#494949" stroke-miterlimit="10"/>
<path d="M17 22.6601C17 22.6601 18.32 20.5901 20.49 19.7501C20.49 19.7501 20.17 18.3501 21.6 16.7401C21.6 16.7401 18.4 13.7601 18.79 9.22009C18.79 9.22009 18.93 7.97009 19.93 8.77009C20.97 9.61009 22.94 11.3601 23.55 15.8501C23.55 15.8501 25.94 15.3201 27.54 16.5201C29.14 17.7201 29.62 19.7501 29.62 19.7501C29.62 19.7501 29.62 22.0301 27.84 22.0901C26.06 22.1501 25 22.3701 25 22.3701C25 22.3701 23.55 22.9301 23.55 27.1101" stroke="#494949" stroke-miterlimit="10" stroke-linecap="round"/>
<path d="M22.1001 7.78003C22.1001 7.78003 25.6901 10.84 25.0601 15.47" stroke="#494949" stroke-miterlimit="10" stroke-linecap="round" stroke-linejoin="round"/>
<path d="M26.0299 19.6101C26.3778 19.6101 26.6599 19.328 26.6599 18.9801C26.6599 18.6322 26.3778 18.3501 26.0299 18.3501C25.682 18.3501 25.3999 18.6322 25.3999 18.9801C25.3999 19.328 25.682 19.6101 26.0299 19.6101Z" fill="#494949"/>
<path d="M12.0697 32.26H10.1797V34.15H12.0697V32.26Z" fill="#494949" stroke="#494949" stroke-miterlimit="10" stroke-linejoin="round"/>
<path d="M20.0599 36.21H18.1699V38.1H20.0599V36.21Z" fill="#494949" stroke="#494949" stroke-miterlimit="10" stroke-linejoin="round"/>
<path d="M28.0497 34.0601H26.1597V35.9501H28.0497V34.0601Z" fill="#494949" stroke="#494949" stroke-miterlimit="10" stroke-linejoin="round"/>
<path d="M36.0096 32.26H34.1196V34.15H36.0096V32.26Z" fill="#494949" stroke="#494949" stroke-miterlimit="10" stroke-linejoin="round"/>
</svg>

<svg xmlns="http://www.w3.org/2000/svg" fill="none" viewBox="0 0 46 50"><path fill="#AFE55D" d="M3.56 37.33l3.99 3.29L44 27.75l.13-6.41c.27-1.62-.95-8.43-2.22-9.48L29.04 4.21c-1.27-1.05-3-1.34-4.54-.76L6.9 10.02a4.61 4.61 0 00-2.93 3.55L2.33 32.64c-.27 1.62-.04 3.64 1.23 4.69z"/><path fill="#C3FF68" d="M38.81 8.83L25.08 1.99c-1.34-1.1-3.85-.12-5.48.49L5.93 10.49c-1.63.61-3.42 2.08-3.7 3.79l-1.04 8.07L38.81 8.83z"/><path fill="#494949" d="M23 49.62c-1.01 0-2.02-.26-2.92-.78L3.81 39.45a5.862 5.862 0 01-2.92-5.06V15.61c0-2.08 1.12-4.02 2.92-5.06l16.27-9.39a5.856 5.856 0 015.84 0l16.27 9.39a5.862 5.862 0 012.92 5.06V29.4a1.23 1.23 0 11-2.46 0V15.61c0-1.2-.65-2.32-1.69-2.92L24.69 3.3a3.38 3.38 0 00-3.37 0L5.05 12.69c-1.04.6-1.69 1.72-1.69 2.92V34.4c0 1.2.65 2.32 1.69 2.92l16.27 9.39c1.04.6 2.33.6 3.37 0l4.49-2.59a1.24 1.24 0 011.69.45c.34.59.14 1.35-.45 1.69l-4.49 2.59c-.91.52-1.92.77-2.93.77z"/><path stroke="#494949" stroke-linecap="round" stroke-miterlimit="10" d="M35.07 30.53v-3.2H11.13v3.28"/><path stroke="#494949" stroke-linecap="round" stroke-linejoin="round" stroke-miterlimit="10" d="M37.67 30.61h-5.2v5.2h5.2v-5.2zm-7.97 1.8h-5.2v5.2h5.2v-5.2zm-7.99 2.14h-5.2v5.2h5.2v-5.2zm-7.98-3.94h-5.2v5.2h5.2v-5.2z"/><path stroke="#494949" stroke-miterlimit="10" d="M19.11 34.55v-7.22m7.99 0v5.08"/><path stroke="#494949" stroke-linecap="round" stroke-miterlimit="10" d="M17 22.66s1.32-2.07 3.49-2.91c0 0-.32-1.4 1.11-3.01 0 0-3.2-2.98-2.81-7.52 0 0 .14-1.25 1.14-.45 1.04.84 3.01 2.59 3.62 7.08 0 0 2.39-.53 3.99.67 1.6 1.2 2.08 3.23 2.08 3.23s0 2.28-1.78 2.34c-1.78.06-2.84.28-2.84.28s-1.45.56-1.45 4.74"/><path stroke="#494949" stroke-linecap="round" stroke-linejoin="round" stroke-miterlimit="10" d="M22.1 7.78s3.59 3.06 2.96 7.69"/><path fill="#494949" d="M26.03 19.61a.63.63 0 100-1.26.63.63 0 000 1.26z"/><path fill="#494949" stroke="#494949" stroke-linejoin="round" stroke-miterlimit="10" d="M12.07 32.26h-1.89v1.89h1.89v-1.89zm7.99 3.95h-1.89v1.89h1.89v-1.89zm7.99-2.15h-1.89v1.89h1.89v-1.89zm7.96-1.8h-1.89v1.89h1.89v-1.89z"/></svg>
